X: 10450
T: Donegal Tinker, The
R: reel
M: 4/4
K: Gmajor
d3B cAGc|AddB cAGc|Addc AdcA|GEED E3G|
Ad d2 fd d2|AdFd cAGc|Addc AdcA|GEED E3G||
AD D2 AD D2|ADAd cAGc|ADFA E3G|AdcA G3B|
AD D2 AD D2|ADAd cAGc|ADFA E3G|AdcA GcAG||
Ad d2 c2 Ac|dA A2 Afgf|dA A2 c3A|(3Bcd ef g2 fg|
d3e BcAc|dA A2 Afgf|dA A2 c3A|(3Bcd ef g2 fg||
ad d2 AdBd|ad d2 AdGd|ad d2 Adgd|(3B^cd ef g2 fg|
ad d2 Bd d2|adfg adfg|abaf gfed|(3B^cd ef gefe||

